X: 30951
T: COTILLION No. 9. HORN POND SETT tune 4
C:
%R: reel
B: Elias Howe "The Musician's Companion" Part 3 1844 p.95 #1
S: http://imslp.org/wiki/The_Musician's_Companion_(Howe,_Elias)
Z: 2015 John Chambers <jc:trillian.mit.edu>
M: 2/4
L: 1/16
K: A
% - - - - - - - - - - - - - - - - - - - - - - - - - - - - -
E2 |\
A2B2c2d2 | ^defe c2A2 | BcdB F2B2 | AGFG EdcB |\
A2B2c2d2 | ^defe c2A2 | BFdB AGFG | A2c2A2 H|]
e2 |\
^defe =dBed | cAce aecA | (3(Bcd) B2 (3(gab) g2 | agab aecA |\
^defe =dBed | cAce aecA | BFdB AGFG | A2c2"^D.C."A2 |]
% - - - - - - - - - - Dance description - - - - - - - - - -
%%begintext align
%% Forward 2,
%% cross over,
%% chassa across and back,
%% cross hands round to place,
%% balance and turn partners.
%%endtext
% - - - - - - - - - - - - - - - - - - - - - - - - - - - - -
%%sep 1 1 300
